!!!COM: Bach, Johann Sebastian
!!!CDT: 1685/02/21/-1750/07/28/
!!!OPR: Partita for solo violin, No. 1 in D Major
!!!OTL: Movement 6: Double
!!!ODT: 1720///
**kern
*>[A,A1,A,A2,B,B1,B,B2]
*>norep[A,A2,B,B2]
*>A
=1-
*Ivioln
*clefG2
*k[f#c#]
*M9/8
*MM132
8b\L
8dd\
8ff#\J
8gg\L
8ee\
8dd\J
8cc#\L
8aa\
8gg\J
=2
8ff#\L
8dd\
8cc#\J
8dd/L
8a/
8f#/J
8d/L
8dd/
8cc#/J
=3
8b/L
8g/
8f#/J
8e/L
8ee/
8dd/J
8e#/L
8cc#/
8b/J
=4
8a#\L
8ff#\
8cc#\J
8a#/L
8g/
8f#/J
8e/L
8d/
8c#/J
=5
8d/L
8f#/
8b/J
8c#/L
8b/
8a/J
8B/L
8a/
8g/J
=6
8A/L
8c#/
8e/J
8g\L
8cc#\
8ee\J
8a#\L
8ff#\
8ee\J
=7
8dd\L
8b\
8a\J
8g\L
8ee\
8dd\J
8cc#\L
8a#\
8b\J
=8
*>A1
8f#/L
8a#/
8cc#/J
8ff#\L
8gg\
8ff#\J
8ee\L
8dd\
8cc#\J
=9:|!
*>A2
8ff#\L
8cc#\
8a#\J
2.f#/
=10!|:
*>B
8f#\L
8cc#\
8aa#\J
8aa#\L
8cc#\
8f#\J
8e/L
8d/
8c#/J
=11
8d/L
8f#/
8b/J
8dd\L
8ff#\
8bb\J
8aa\L
8gg#\
8ff#\J
=12
8ee\L
8g#\
8dd\J
8cc#\L
8a\
8ff#\J
8dd\L
8b\
8gg#\J
=13
8aa\L
8ee\
8cc#\J
8a\L
8cc#\
8ee\J
8gg\L
8ff#\
8ee\J
=14
8dd#\L
8a\
8ccc\J
8bb\L
8ee\
8g\J
8f#\L
8dd#\
8aa\J
=15
8cc/L
8a/
8e/J
8d#\L
8b\
8aa\J
8gg\L
8dd#\
8ee\J
=16
8a\L
8gg\
8ff#\J
8b\L
8g\
8ee\J
8f#\L
8ee\
8dd#\J
=17
8ee\L
8b\
8g\J
8e/L
8g/
8b/J
8ee\L
8ff#\
8gg\J
=18
8aa\L
8ee\
8dd\J
8cc#\L
8b\
8a\J
8g/L
8f#/
8e/J
=19
8f#/L
8a/
8cc#/J
8dd\L
8ff#\
8ee\J
8ff#/L
8a/
8d/J
=20
8G/L
8d/
8b/J
8cc#\L
8bb\
8aa\J
8gg\L
8ee\
8ff#\J
=21
8ee\L
8cc#\
8b\J
8cc#/L
8a/
8g#/J
8a/L
8e/
8g/J
=22
8a#\L
8cc#\
8ee\J
8gg\L
8ff#\
8ee\J
8dd\L
8ee\
8cc#\J
=23
8dd\L
8b\
8cc#\J
8dd\L
8ff#\
8ee\J
8ff#\L
8a\
8f#\J
=24
8g\L
8b\
8ff#\J
8ee\L
8cc#\
8dd\J
8cc#\L
8a#\
8b\J
=25
8a#\L
8cc#\
8b\J
8a#/L
8g#/
8f#/J
8e/L
8d/
8c#/J
=26
8d/L
8f#/
8b/J
8b\L
8a#\
8cc#\J
8cc#\L
8b\
8dd\J
=27
8dd\L
8b\
8g#\J
8e/L
8g#/
8b/J
8dd\L
8gg#\
8bb\J
=28
8e/L
8g/
8cc#/J
8cc#\L
8b\
8dd\J
8dd\L
8cc#\
8ee\J
=29
8ee\L
8cc#\
8a#\J
8f#/L
8a#/
8cc#/J
8ee\L
8aa#\
8ccc#\J
=30
8dd\L
8bb\
8f#\J
8cc#\L
8aa\
8e\J
8b\L
8gg\
8d\J
=31
8c#/L
8e/
8g/J
8a#\L
8cc#\
8ee\J
8gg\L
8ff#\
8ee\J
=32
8aa#\L
8bb\
8ee#\J
8ff#\L
8cc#\
8dd\J
8f#/L
8b/
8a#/J
=33
*>B1
8b/L
8f#/
8d/J
8B/L
8d/
8f#/J
8b\L
8cc#\
8dd\J
=34:|!
*>B2
8B/L
8d/
8f#/J
8b\L
8dd\
8ff#\J
4bb\
==
*-
!!!ENC: Craig Sapp
!!!END: 2004/05/06/
